symbols/web/check/materialsymbolsrounded/check_wght700gradN25_20px.svg

<svg xmlns="http://www.w3.org/2000/svg" height="20" width="20"><path d="M8 15.021q-.229 0-.469-.104-.239-.105-.448-.292l-3.458-3.458q-.375-.396-.365-.938.011-.541.386-.917.375-.395.948-.395t.948.395l2.5 2.5 6.437-6.437q.375-.396.906-.406.532-.011.948.406.375.375.375.917 0 .541-.375.916l-7.416 7.417q-.209.187-.448.292-.24.104-.469.104Z"/></svg>

<svg xmlns="http://www.w3.org/2000/svg" height="20" width="20"><path d="M8 15.021Q7.771 15.021 7.531 14.917Q7.292 14.812 7.083 14.625L3.625 11.167Q3.25 10.771 3.26 10.229Q3.271 9.688 3.646 9.312Q4.021 8.917 4.594 8.917Q5.167 8.917 5.542 9.312L8.042 11.812L14.479 5.375Q14.854 4.979 15.385 4.969Q15.917 4.958 16.333 5.375Q16.708 5.75 16.708 6.292Q16.708 6.833 16.333 7.208L8.917 14.625Q8.708 14.812 8.469 14.917Q8.229 15.021 8 15.021Z"/></svg>
